!!!OTL: Der bon vivant (45b), S. 146
!!!id: T0177
**kern
*clefG2
*k[f#]
*G:
{8d
=1
8g
8a
8b
8d
=2
8g
8a
8b}
=3
{8d
=4
8g
8g
16b
16b
8b
=5
4a}
8r
=6
{8dd
=7
8dd
8dd
8ff#
8ee
=8
8dd
8dd
8g}
=9
{8g
=10
8a
8a
8dd
8dd
=11
4b}
8r
==
*-
!!!minrhy: 16
!!!meters: 2/4 ]  ZZ[4
!!!cut: Der bon vivant (45b), S. 146
!!!reg: Luxemburg
!!!trd: Singendes Volk, Esch-Alzette 1937 posth.
!!!rhy1: X_  X_X_X_X_  X_X_X_
!!!rhy2: X_  X_X_XXX_  X__0_
!!!key: T0177  16  G 2/4 ]  ZZ[4
!!!mod: SECHSTONSKALA DUR ?]  AMBITUS[10
!!!kad: 3213
!!!akz: 11_12_55_23_
!!!fot: 'a__aw_as"b__
!!!for: 'a__b__a__aw_
!!!fok: '/__/__^d_^a_
!! PHRAS[AUFTAKTIG]
!!!fkt: Liebeslieder
!!!bem1: Esch-Alz., fff Dominik M&uuml;ller, 7.6.1915
!!!bem2: (45c)- Consdorf, Fam. Freylinger, geschriebenes Liederheft
!!!bem3: (1848-1851)
!! THILL, Mathias:
!! PR[27] 2K[0] 2G[8] 3K[0] 3G[3] 4A[8] 4Ü[0] 5A[0] 6K[0] 6G[3]
!! 7K[2] 7G[0] 8A[0] MEHR[0] SI[25] ABS[59] SR[8] SP[17]
!! ST[18] 2k[10] 2g[29] 3k[0] 3g[5] 4d[2] 4ü[0] 5d[0] 6k[0] 6g[2]
!! 7k[0] 7g[0] 8d[0] mehr[0] si[47] dm[-22] sr[39] sp[8]
!! 1F[86] 2F[14] 3F[0] 4F[0] LF[0] 2P[0] 3P[0] 4P[0] TRI[0] DF[2] AB[63]
!! TF[0] U3K[0] U3[0] U4[0] U4Ü[0] U5[17] U6K[0] U6[5] U7K[0] U7[5]
!! N1[33] N2K[0] N2[15] N3K[0] N3[17] N4[5] N4Ü[0] N5[3] N6K[0] N6[0]
!!!n7k: 0] N7[0] O1[0] O2K[0] O2[0] O3K[0] O3[0] HÖ[0
!!!RNB: symbol: &uuml;  = u umlaut (UTF-8: Ã¼)
